src/Assets/icons/whatsapp-outline.svg

<svg class="svg-icon" viewBox="0 0 24 24" fill="currentColor" xmlns="http://www.w3.org/2000/svg">
<path fill-rule="evenodd" clip-rule="evenodd" d="M3.50002 12C3.50002 7.30558 7.3056 3.5 12 3.5C16.6944 3.5 20.5 7.30558 20.5 12C20.5 16.6944 16.6944 20.5 12 20.5C10.3278 20.5 8.77127 20.0182 7.45798 19.1861C7.21357 19.0313 6.91408 18.9899 6.63684 19.0726L3.75769 19.9319L4.84173 17.3953C4.96986 17.0955 4.94379 16.7521 4.77187 16.4751C3.9657 15.176 3.50002 13.6439 3.50002 12ZM12 1.5C6.20103 1.5 1.50002 6.20101 1.50002 12C1.50002 13.8381 1.97316 15.5683 2.80465 17.0727L1.08047 21.107C0.928048 21.4637 0.99561 21.8763 1.25382 22.1657C1.51203 22.4552 1.91432 22.5692 2.28599 22.4582L6.78541 21.1155C8.32245 21.9965 10.1037 22.5 12 22.5C17.799 22.5 22.5 17.799 22.5 12C22.5 6.20101 17.799 1.5 12 1.5ZM14.2925 14.1824L12.9783 15.1081C12.3628 14.7575 11.6823 14.2681 10.9997 13.5855C10.2901 12.8759 9.76402 12.1433 9.37612 11.4713L10.2113 10.7624C10.5697 10.4582 10.6678 9.94533 10.447 9.53028L9.38284 7.53028C9.23954 7.26097 8.98116 7.0718 8.68115 7.01654C8.38113 6.96129 8.07231 7.046 7.84247 7.24659L7.52696 7.52195C6.76823 8.18414 6.3195 9.2723 6.69141 10.3741C7.07698 11.5163 7.89983 13.314 9.58552 14.9997C11.3991 16.8133 13.2413 17.5275 14.3186 17.8049C15.1866 18.0283 16.008 17.7288 16.5868 17.2572L17.1783 16.7752C17.4313 16.5691 17.5678 16.2524 17.544 15.9269C17.5201 15.6014 17.3389 15.308 17.0585 15.1409L15.3802 14.1409C15.0412 13.939 14.6152 13.9552 14.2925 14.1824Z" fill="currentColor"/>
</svg>

<svg class="svg-icon" viewBox="0 0 24 24" fill="currentColor" xmlns="http://www.w3.org/2000/svg"><path fill-rule="evenodd" clip-rule="evenodd" d="M3.5 12a8.5 8.5 0 1 1 8.5 8.5 8.455 8.455 0 0 1-4.542-1.314 1 1 0 0 0-.821-.113l-2.88.859 1.085-2.537a1 1 0 0 0-.07-.92A8.456 8.456 0 0 1 3.5 12ZM12 1.5C6.201 1.5 1.5 6.201 1.5 12c0 1.838.473 3.568 1.305 5.073L1.08 21.107a1 1 0 0 0 1.206 1.351l4.5-1.342A10.456 10.456 0 0 0 12 22.5c5.799 0 10.5-4.701 10.5-10.5S17.799 1.5 12 1.5Zm2.293 12.682-1.315.926A9.338 9.338 0 0 1 11 13.585a10.202 10.202 0 0 1-1.624-2.114l.835-.709a1 1 0 0 0 .236-1.232l-1.064-2a1 1 0 0 0-1.54-.283l-.316.275c-.759.662-1.208 1.75-.836 2.852A12.049 12.049 0 0 0 9.586 15c1.813 1.813 3.655 2.527 4.733 2.805.868.223 1.689-.076 2.268-.548l.591-.482a1 1 0 0 0-.12-1.634l-1.678-1a1 1 0 0 0-1.088.041Z"/></svg>
